X:493
T: REIM DICH ODR ICH FRESS DICH
N: E1749
O: Europa, Mitteleuropa, Deutschland, Schlesien, Goldberg, Neukirch
R: Scherz -, Spiel - Lied, Reimspiel
M: 2/4
L: 1/8
K: C
 | CCG,G, | A,2A,
A, | B,G,A,B, | C2z2 |
CCG,G, | A,2A,
A, | B,G,A,B, | C2z2 |
EEEE | F2F
F | DDDD | E2E2 |
CCCC | D2D
D | B,G,A,B, | C2z2 |
EEEE | F2F
F | DDDD | E2E2 |
CCCC | D2D
D | B,G,A,B, | C2z2

@@@ Tune index: 5177
